dist/images/icons/phone.svg

<svg width="22" height="22" viewBox="0 0 22 22" fill="none" xmlns="http://www.w3.org/2000/svg">
<path d="M13.353 1.5C17.054 1.911 19.978 4.831 20.393 8.532" stroke="#31352B" stroke-width="1.5" stroke-linecap="round" stroke-linejoin="round"/>
<path d="M13.353 5.04297C15.124 5.38697 16.508 6.77197 16.853 8.54297" stroke="#31352B" stroke-width="1.5" stroke-linecap="round" stroke-linejoin="round"/>
<path fill-rule="evenodd" clip-rule="evenodd" d="M10.0315 11.4724C14.0205 15.4604 14.9254 10.8467 17.4653 13.3848C19.9138 15.8328 21.3222 16.3232 18.2188 19.4247C17.8302 19.737 15.3613 23.4943 6.68447 14.8197C-1.99341 6.144 1.76157 3.67244 2.07394 3.28395C5.18377 0.173846 5.66682 1.58938 8.11539 4.03733C10.6541 6.5765 6.04254 7.48441 10.0315 11.4724Z" stroke="#31352B" stroke-width="1.5" stroke-linecap="round" stroke-linejoin="round"/>
</svg>

<svg width="22" height="22" fill="none" xmlns="http://www.w3.org/2000/svg"><path d="M13.353 1.5a7.97 7.97 0 017.04 7.032m-7.04-3.489a4.426 4.426 0 013.5 3.5" stroke="#31352B" stroke-width="1.5" stroke-linecap="round" stroke-linejoin="round"/><path clip-rule="evenodd" d="M10.031 11.472c3.99 3.988 4.894-.625 7.434 1.913 2.449 2.448 3.857 2.938.754 6.04-.389.312-2.858 4.07-11.535-4.605-8.677-8.676-4.922-11.148-4.61-11.536 3.11-3.11 3.593-1.695 6.041.753 2.54 2.54-2.072 3.447 1.916 7.435z" stroke="#31352B" stroke-width="1.5" stroke-linecap="round" stroke-linejoin="round"/></svg>
